icons/Color/24/gimp-prefs-folders-dynamics.svg

<svg height="24" viewBox="0 0 24 24" width="24" xmlns="http://www.w3.org/2000/svg" xmlns:xlink="http://www.w3.org/1999/xlink"><linearGradient id="a" gradientTransform="matrix(.60072171 0 0 .60098717 -1.832204 23.944582)" gradientUnits="userSpaceOnUse" x1="18.112709" x2="15.514889" y1="31.36775" y2="6.18025"><stop offset="0" stop-color="#424242"/><stop offset="1" stop-color="#777"/></linearGradient><linearGradient id="b" gradientTransform="matrix(.58583149 0 0 .59874372 -1.306445 24.343264)" gradientUnits="userSpaceOnUse" x1="22.175976" x2="22.065331" y1="36.987999" y2="32.050499"><stop offset="0" stop-color="#6194cb"/><stop offset="1" stop-color="#729fcf"/></linearGradient><linearGradient id="c" gradientTransform="matrix(.77184067 0 0 .50168839 -1.88797 23.335751)" gradientUnits="userSpaceOnUse" x1="13.035696" x2="12.853771" y1="32.567184" y2="46.689312"><stop offset="0" stop-color="#fff" stop-opacity=".796078"/><stop offset="1" stop-color="#fff" stop-opacity=".215686"/></linearGradient><path d="m.88412762 47.195223c.013093.250194.27627478.500388.52635808.500388h18.8188213c.250082 0 .487072-.250194.473979-.500388l-.562542-16.362918c-.0131-.250193-.276269-.500392-.526352-.500392h-7.972102c-.291384 0-.741575-.189664-.841998-.665071l-.367276-1.738699c-.0934-.44213-.5299649-.623756-.7800482-.623756h-8.87798107c-.25008813 0-.48707765.250193-.47398438.500387z" fill="#fff" stroke="url(#a)" stroke-linecap="round" stroke-linejoin="round" stroke-width=".600854" transform="translate(0 -24)"/><path d="m.003878 0h23.996145v23.996084h-23.996145z" fill="#bebebe" opacity="0"/><g transform="matrix(1.6682374 0 0 1.7570343 -.731062 -68.607046)"><path d="m13.01923 42.799754 1.020097-1.010697.00002 5.04006h-5.0877403l1.0201821-1.010696s-2.0403537-1.758726-.3444251-3.438833c1.6580753-1.583563 3.3917503.420055 3.3917503.420055z" fill="#396db1" stroke="#122439" stroke-width=".371894"/><g fill="#f57900" stroke="#542900" stroke-width=".475533" transform="translate(1.432577 1.841884)"><path d="m4.911377 38.791359c.3264168.273788.81603.234252 1.0933315-.08762.2774363-.322328.2372131-.80577-.089163-1.079458-.3265099-.273838-.8160859-.234302-1.0933456.08757-.2774101.322228-.2372831.80572.089177 1.079508z"/><path d="m7.4049627 39.269118c.4194911.343203 1.0407126.284552 1.3874244-.130783.3470018-.415335.2876356-1.030666-.1317125-1.373819-.4195384-.343304-1.04076-.284603-1.3875225.130833-.346915.415184-.2875916 1.030515.1318106 1.373769z"/><path d="m5.1136848 41.560375c.4194419.343254 1.0406891.284603 1.3874456-.130732.3469929-.415385.287584-1.030666-.1317593-1.373869-.4194781-.343304-1.0407605-.284603-1.3874828.130782-.3469059.415285-.2876534 1.030566.1317965 1.373819z"/></g></g><g transform="matrix(.99949608 0 0 1.0005166 -.461848 -24.322559)"><path d="m22 48c.670129-.02638 1.150031-.656403 1.199218-1.389688.463853-6.914704.972105-12.712496.972105-12.712496.04227-.14818-.09837-.296359-.281282-.296359h-20.1357041s-1.0839751 13.092665-1.0839751 13.092665c-.06711.588005-.2730018 1.080563-.9079425 1.307485l20.2375807-.0016z" display="block" fill="url(#b)" stroke="#3465a4" stroke-linejoin="round" stroke-width=".592258"/><path d="m4.2632663 34.265001 19.2104097.03984-.922143 12.293645c-.0494.658573-.264026.877811-1.097081.877811-1.096404 0-16.8007634-.01992-18.3923646-.01992.1368518-.197177.1955282-.607628.1963136-.617456z" fill="none" opacity=".465909" stroke="url(#c)" stroke-linecap="round" stroke-width=".600059"/></g></svg>

<?xml version="1.0" encoding="UTF-8" standalone="no"?>
<!-- Created with Inkscape (http://www.inkscape.org/) -->

<svg
   xmlns:dc="http://purl.org/dc/elements/1.1/"
   xmlns:cc="http://creativecommons.org/ns#"
   xmlns:rdf="http://www.w3.org/1999/02/22-rdf-syntax-ns#"
   xmlns:svg="http://www.w3.org/2000/svg"
   xmlns="http://www.w3.org/2000/svg"
   xmlns:xlink="http://www.w3.org/1999/xlink"
   xmlns:sodipodi="http://sodipodi.sourceforge.net/DTD/sodipodi-0.dtd"
   xmlns:inkscape="http://www.inkscape.org/namespaces/inkscape"
   width="24"
   height="24"
   id="svg97"
   sodipodi:version="0.32"
   inkscape:version="0.92pre1 unknown"
   sodipodi:docname="gimp-prefs-folders-dynamics-24.svg"
   inkscape:output_extension="org.inkscape.output.svg.inkscape"
   version="1.1"
   viewBox="0 0 24 24">
  <defs
     id="defs3">
    <linearGradient
       id="linearGradient9766">
      <stop
         style="stop-color:#6194cb;stop-opacity:1;"
         offset="0"
         id="stop9768" />
      <stop
         style="stop-color:#729fcf;stop-opacity:1;"
         offset="1"
         id="stop9770" />
    </linearGradient>
    <linearGradient
       id="linearGradient3096">
      <stop
         id="stop3098"
         offset="0"
         style="stop-color:#424242;stop-opacity:1;" />
      <stop
         id="stop3100"
         offset="1.0000000"
         style="stop-color:#777777;stop-opacity:1.0000000;" />
    </linearGradient>
    <linearGradient
       gradientUnits="userSpaceOnUse"
       y2="6.1802502"
       x2="15.514889"
       y1="31.36775"
       x1="18.112709"
       id="linearGradient3104-5"
       xlink:href="#linearGradient3096"
       inkscape:collect="always"
       gradientTransform="matrix(0.60072171,0,0,0.60098717,-1.8322037,23.944582)" />
    <linearGradient
       inkscape:collect="always"
       xlink:href="#linearGradient9766"
       id="linearGradient9772"
       x1="22.175976"
       y1="36.987999"
       x2="22.065331"
       y2="32.050499"
       gradientUnits="userSpaceOnUse"
       gradientTransform="matrix(0.58583149,0,0,0.59874372,-1.3064445,24.343264)" />
    <linearGradient
       gradientUnits="userSpaceOnUse"
       y2="46.689312"
       x2="12.853771"
       y1="32.567184"
       x1="13.035696"
       gradientTransform="matrix(0.77184067,0,0,0.50168839,-1.8879701,23.335751)"
       id="linearGradient322-1"
       xlink:href="#linearGradient8340"
       inkscape:collect="always" />
    <linearGradient
       id="linearGradient8340">
      <stop
         id="stop8342"
         stop-color="#ffffff"
         stop-opacity="0.796078" />
      <stop
         id="stop8344"
         offset="1"
         stop-color="#ffffff"
         stop-opacity="0.215686" />
    </linearGradient>
  </defs>
  <sodipodi:namedview
     fill="#729fcf"
     id="base"
     pagecolor="#ffffff"
     bordercolor="#666666"
     borderopacity="0.10196078"
     inkscape:pageopacity="0.0"
     inkscape:pageshadow="2"
     inkscape:zoom="11.313708"
     inkscape:cx="-10.669835"
     inkscape:cy="6.3809805"
     inkscape:current-layer="svg97"
     showgrid="true"
     inkscape:grid-bbox="true"
     inkscape:document-units="px"
     inkscape:window-width="1920"
     inkscape:window-height="1016"
     inkscape:window-x="0"
     inkscape:window-y="27"
     inkscape:showpageshadow="false"
     stroke="#3465a4"
     inkscape:window-maximized="1">
    <inkscape:grid
       type="xygrid"
       id="grid4153" />
  </sodipodi:namedview>
  <metadata
     id="metadata4">
    <rdf:RDF>
      <cc:Work
         rdf:about="">
        <dc:format>image/svg+xml</dc:format>
        <dc:type
           rdf:resource="http://purl.org/dc/dcmitype/StillImage" />
        <dc:title />
        <dc:date />
        <dc:creator>
          <cc:Agent>
            <dc:title>Jakub Steiner</dc:title>
          </cc:Agent>
        </dc:creator>
        <cc:license
           rdf:resource="http://creativecommons.org/publicdomain/zero/1.0/" />
        <dc:source>http://jimmac.musichall.cz</dc:source>
        <dc:subject>
          <rdf:Bag>
            <rdf:li>folder</rdf:li>
            <rdf:li>directory</rdf:li>
          </rdf:Bag>
        </dc:subject>
      </cc:Work>
      <cc:License
         rdf:about="http://creativecommons.org/publicdomain/zero/1.0/">
        <cc:permits
           rdf:resource="http://creativecommons.org/ns#Reproduction" />
        <cc:permits
           rdf:resource="http://creativecommons.org/ns#Distribution" />
        <cc:permits
           rdf:resource="http://creativecommons.org/ns#DerivativeWorks" />
      </cc:License>
    </rdf:RDF>
  </metadata>
  <g
     id="layer1"
     inkscape:label="Folder"
     inkscape:groupmode="layer"
     transform="translate(0,-24)" />
  <g
     id="g4492">
    <path
       sodipodi:nodetypes="ccccccssssccc"
       style="fill:#ffffff;fill-opacity:1;fill-rule:nonzero;stroke:url(#linearGradient3104-5);stroke-width:0.60085434;stroke-linecap:round;stroke-linejoin:round;stroke-miterlimit:4;stroke-dasharray:none;stroke-opacity:1"
       id="path216-5"
       d="m 0.88412762,47.195223 c 0.013093,0.250194 0.27627478,0.500388 0.52635808,0.500388 H 20.229307 c 0.250082,0 0.487072,-0.250194 0.473979,-0.500388 L 20.140744,30.832305 c -0.0131,-0.250193 -0.276269,-0.500392 -0.526352,-0.500392 H 11.64229 c -0.291384,0 -0.741575,-0.189664 -0.841998,-0.665071 l -0.367276,-1.738699 c -0.0934,-0.44213 -0.5299649,-0.623756 -0.7800482,-0.623756 H 0.77498673 c -0.25008813,0 -0.48707765,0.250193 -0.47398438,0.500387 z"
       inkscape:connector-curvature="0"
       transform="translate(0,-24)" />
    <rect
       y="24"
       x="0.0038782416"
       height="23.996084"
       width="23.996145"
       id="rect3965-5"
       style="color:#000000;clip-rule:nonzero;display:inline;overflow:visible;visibility:visible;opacity:0;isolation:auto;mix-blend-mode:normal;color-interpolation:sRGB;color-interpolation-filters:linearRGB;solid-color:#000000;solid-opacity:1;fill:#bebebe;fill-opacity:1;fill-rule:nonzero;stroke:none;stroke-width:0.7393803;stroke-linecap:round;stroke-linejoin:miter;stroke-miterlimit:4;stroke-dasharray:none;stroke-dashoffset:0;stroke-opacity:1;color-rendering:auto;image-rendering:auto;shape-rendering:auto;text-rendering:auto;enable-background:accumulate"
       transform="translate(0,-24)" />
    <g
       transform="matrix(1.6682374,0,0,1.7570343,-0.73106196,-68.607046)"
       id="g3968">
      <path
         inkscape:connector-curvature="0"
         id="path4045-0"
         d="m 13.01923,42.799754 1.020097,-1.010697 2e-5,5.04006 H 8.9516067 l 1.0201821,-1.010696 c 0,0 -2.0403537,-1.758726 -0.3444251,-3.438833 1.6580753,-1.583563 3.3917503,0.420055 3.3917503,0.420055 z"
         style="fill:#396db1;fill-opacity:1;stroke:#122439;stroke-width:0.37189436;stroke-opacity:1" />
      <g
         id="g3970-85"
         transform="translate(1.4325767,1.8418843)">
        <path
           inkscape:connector-curvature="0"
           id="path3997-6"
           d="m 4.911377,38.791359 c 0.3264168,0.273788 0.81603,0.234252 1.0933315,-0.08762 0.2774363,-0.322328 0.2372131,-0.80577 -0.089163,-1.079458 -0.3265099,-0.273838 -0.8160859,-0.234302 -1.0933456,0.08757 -0.2774101,0.322228 -0.2372831,0.80572 0.089177,1.079508 z"
           style="fill:#f57900;fill-opacity:1;stroke:#542900;stroke-width:0.47553325;stroke-opacity:1" />
        <path
           inkscape:connector-curvature="0"
           id="path3989-7"
           d="M 7.4049627,39.269118 C 7.8244538,39.612321 8.4456753,39.55367 8.7923871,39.138335 9.1393889,38.723 9.0800227,38.107669 8.6606746,37.764516 c -0.4195384,-0.343304 -1.04076,-0.284603 -1.3875225,0.130833 -0.346915,0.415184 -0.2875916,1.030515 0.1318106,1.373769 z"
           style="fill:#f57900;fill-opacity:1;stroke:#542900;stroke-width:0.47553325;stroke-opacity:1" />
        <path
           inkscape:connector-curvature="0"
           style="fill:#f57900;fill-opacity:1;stroke:#542900;stroke-width:0.47553325;stroke-opacity:1"
           d="M 5.1136848,41.560375 C 5.5331267,41.903629 6.1543739,41.844978 6.5011304,41.429643 6.8481233,41.014258 6.7887144,40.398977 6.3693711,40.055774 5.949893,39.71247 5.3286106,39.771171 4.9818883,40.186556 4.6349824,40.601841 4.6942349,41.217122 5.1136848,41.560375 Z"
           id="path3771-6" />
      </g>
    </g>
    <g
       transform="matrix(0.99949608,0,0,1.0005166,-0.46184755,-24.322559)"
       id="g4420">
      <path
         inkscape:connector-curvature="0"
         style="color:#000000;display:block;visibility:visible;fill:url(#linearGradient9772);fill-opacity:1;fill-rule:nonzero;stroke:#3465a4;stroke-width:0.59225792;stroke-linecap:butt;stroke-linejoin:round;stroke-miterlimit:4;stroke-dasharray:none;stroke-dashoffset:0;stroke-opacity:1;marker:none;marker-start:none;marker-mid:none;marker-end:none"
         d="m 22,48 c 0.670129,-0.02638 1.150031,-0.656403 1.199218,-1.389688 0.463853,-6.914704 0.972105,-12.712496 0.972105,-12.712496 0.04227,-0.14818 -0.09837,-0.296359 -0.281282,-0.296359 H 3.7543369 c 0,0 -1.0839751,13.092665 -1.0839751,13.092665 -0.06711,0.588005 -0.2730018,1.080563 -0.9079425,1.307485 L 22,48.000007 Z"
         id="path233-5"
         sodipodi:nodetypes="cscccscc"
         inkscape:export-filename="/home/jimmac/ximian_art/icons/nautilus/suse93/gnome-fs-directory.png"
         inkscape:export-xdpi="74.800003"
         inkscape:export-ydpi="74.800003" />
      <path
         inkscape:connector-curvature="0"
         sodipodi:nodetypes="ccsscsc"
         id="path304-3"
         d="m 4.2632663,34.265001 19.2104097,0.03984 -0.922143,12.293645 c -0.0494,0.658573 -0.264026,0.877811 -1.097081,0.877811 -1.096404,0 -16.8007634,-0.01992 -18.3923646,-0.01992 0.1368518,-0.197177 0.1955282,-0.607628 0.1963136,-0.617456 z"
         style="opacity:0.46590911;fill:none;fill-opacity:1;fill-rule:evenodd;stroke:url(#linearGradient322-1);stroke-width:0.60005915px;stroke-linecap:round;stroke-linejoin:miter;stroke-opacity:1" />
    </g>
  </g>
</svg>
